X: 19412
T: Jackie Donnan's
R: mazurka
M: 3/4
K: Dmajor
|:A/|F>E D2 D2|F>A d2 d2|c>d e2 e>d|c>d E2 E>G|
F>E D2 D2|F>A d2 d2|c>d e2 e>f|(3gfe d2- d3/2:|
|:f/|a>f d2 d2|f>g B2 B2|A>c e2 e>f|(3gfe a2 a>^g|
a>f d2 d2|f>g B2 B2|A>c e2- e>f|g>e d2- d3/2:|

